suite-common/icons/assets/icons/actionHorizontal.svg

<svg xmlns="http://www.w3.org/2000/svg" xml:space="preserve" fill="none" viewBox="0 0 24 24">
  <path fill="#000" fill-rule="evenodd" d="M7.18 3.826c-.175.091-3.251 3.167-3.343 3.342a.8.8 0 0 0-.013.644c.088.177 3.161 3.255 3.344 3.351.27.14.685.07.877-.149.196-.223.253-.582.131-.826-.035-.07-.471-.538-.97-1.038l-.905-.91h6.691c6.09 0 6.703-.006 6.82-.065a.73.73 0 0 0 .428-.675.72.72 0 0 0-.408-.664c-.144-.074-.353-.076-6.84-.076H6.301l.905-.91c.499-.5.935-.968.97-1.038.127-.254.048-.673-.162-.857-.222-.195-.596-.253-.834-.129m9 9.001a.7.7 0 0 0-.344.341.8.8 0 0 0-.012.644c.035.07.471.538.97 1.038l.905.91h-6.691c-6.487 0-6.696.002-6.84.076a.72.72 0 0 0-.408.664c0 .297.15.535.428.675.117.059.73.065 6.82.065h6.691l-.905.91c-.499.501-.935.968-.97 1.038-.122.244-.065.603.131.826.192.219.607.289.877.149.183-.096 3.256-3.174 3.344-3.351a.8.8 0 0 0-.013-.644c-.096-.183-3.174-3.256-3.351-3.344-.162-.081-.476-.08-.632.003"/>
</svg>

<svg xmlns="http://www.w3.org/2000/svg" xml:space="preserve" fill="none" viewBox="0 0 24 24"><path d="M7.180 3.826 C 7.005 3.917,3.929 6.993,3.837 7.168 C 3.743 7.349,3.737 7.638,3.824 7.812 C 3.912 7.989,6.985 11.067,7.168 11.163 C 7.438 11.303,7.853 11.233,8.045 11.014 C 8.241 10.791,8.298 10.432,8.176 10.188 C 8.141 10.118,7.705 9.650,7.206 9.150 L 6.301 8.240 12.992 8.240 C 19.082 8.240,19.695 8.234,19.812 8.175 C 20.090 8.035,20.240 7.797,20.240 7.500 C 20.240 7.208,20.093 6.969,19.832 6.836 C 19.688 6.762,19.479 6.760,12.992 6.760 L 6.301 6.760 7.206 5.850 C 7.705 5.350,8.141 4.882,8.176 4.812 C 8.303 4.558,8.224 4.139,8.014 3.955 C 7.792 3.760,7.418 3.702,7.180 3.826 M16.180 12.827 C 16.004 12.920,15.921 13.002,15.836 13.168 C 15.743 13.350,15.738 13.640,15.824 13.812 C 15.859 13.882,16.295 14.350,16.794 14.850 L 17.699 15.760 11.008 15.760 C 4.521 15.760,4.312 15.762,4.168 15.836 C 3.907 15.969,3.760 16.208,3.760 16.500 C 3.760 16.797,3.910 17.035,4.188 17.175 C 4.305 17.234,4.918 17.240,11.008 17.240 L 17.699 17.240 16.794 18.150 C 16.295 18.651,15.859 19.118,15.824 19.188 C 15.702 19.432,15.759 19.791,15.955 20.014 C 16.147 20.233,16.562 20.303,16.832 20.163 C 17.015 20.067,20.088 16.989,20.176 16.812 C 20.263 16.638,20.257 16.349,20.163 16.168 C 20.067 15.985,16.989 12.912,16.812 12.824 C 16.650 12.743,16.336 12.744,16.180 12.827 " stroke="none" fill-rule="evenodd" fill="black"></path></svg>
